resources/icons/20px/drawer-left.svg

<?xml version="1.0" encoding="UTF-8"?>
<svg width="20px" height="20px" viewBox="0 0 20 20" version="1.1" xmlns="http://www.w3.org/2000/svg" xmlns:xlink="http://www.w3.org/1999/xlink">
    <title>drawer-left</title>
    <g id="drawer-left" stroke="none" stroke-width="1" fill="none" fill-rule="evenodd">
        <path d="M9,0 C9.55228475,0 10,0.44771525 10,1 L10,19 C10,19.5522847 9.55228475,20 9,20 L1,20 C0.44771525,20 0,19.5522847 0,19 L0,1 C0,0.44771525 0.44771525,0 1,0 L9,0 Z M7.99999999,2 L1.99999999,2 L1.99999999,18 L7.99999999,18 L7.99999999,2 Z M10.0000001,9 L16.5900001,9 L14.3000001,6.71000006 C14.1100001,6.53000006 14.0000001,6.28000006 14.0000001,6 C14.0000001,5.45000005 14.4500001,5 15.0000001,5 C15.2800001,5 15.5300001,5.11000005 15.7100001,5.29000005 L19.7100001,9.29000007 C19.8900001,9.47000007 20.0000001,9.72000007 20.0000001,10 C20.0000001,10.2800001 19.8900001,10.5300001 19.7100001,10.7100001 L15.7100001,14.7100001 C15.5300001,14.8900001 15.2800001,15 15.0000001,15 C14.4500001,15 14.0000001,14.5500001 14.0000001,14 C14.0000001,13.7200001 14.1100001,13.4700001 14.2900001,13.2900001 L16.5900001,11 L10.0000001,11 L10.0000001,9 Z" id="Shape" fill="#000000" fill-rule="nonzero"></path>
    </g>
</svg>

<svg xmlns="http://www.w3.org/2000/svg" viewBox="0 0 20 20">
  <path d="M9 0a1 1 0 0 1 1 1v18a1 1 0 0 1-1 1H1a1 1 0 0 1-1-1V1a1 1 0 0 1 1-1zM8 2H2v16h6zm2 7h6.59L14.3 6.71A.97.97 0 0 1 14 6a1.003 1.003 0 0 1 1.71-.71l4 4c.18.18.29.43.29.71s-.11.53-.29.71l-4 4a1.003 1.003 0 0 1-1.42-1.42l2.3-2.29H10z"/>
</svg>
